X: 31443
T: Paddy Shannon's
R: reel
M: 4/4
K: Gmajor
|GF|:DGG2 AGFG|ABcA d^cde|=fedc AGFG|
AGFD DCC2|DE=FE DGG2|AGFG ABcA|d^cde =fedc|
1 AGFG AGGF G3 F:|2 AGFG AGGF G3 B||
dgge dGBG|FADE FGAB|dgge dGBG|DCB,C DCC2|
dgge dGBG|FADE FGAB|cBcd fdef|1 defd g3 e:|2 defd g3||

